static/images/mobile/copyright/wikipedia-wordmark-be_x_old.svg

<?xml version="1.0" encoding="UTF-8"?>
<svg width="120px" height="21px" viewBox="0 0 120 21" version="1.1" xmlns="http://www.w3.org/2000/svg" xmlns:xlink="http://www.w3.org/1999/xlink">
    <title>be-tarask-wordmark</title>
    <g id="Page-1" stroke="none" stroke-width="1" fill="none" fill-rule="evenodd">
        <path d="M6.88994507,1.77635684e-15 C11.8486513,1.77635684e-15 12.6219369,2.35343497 12.6219369,4.16468119 C12.6219369,5.6352077 11.4249738,7.02376397 10.0907351,7.71014135 L10.0907351,7.76445898 C12.4096043,8.44194803 14.1951731,9.92827603 14.1951731,12.5266342 C14.1951731,14.8514289 12.7809394,17.5603975 7.47756311,17.5603975 C5.10536387,17.5603975 4.73205358,17.5050923 3.58545769,17.5050923 C2.22652923,17.5050923 1.42559101,17.5317573 0.119992593,17.5603975 C-0.039997531,17.3974446 -0.039997531,16.8285908 0.119992593,16.6666255 C1.98555645,16.5856429 2.4388618,16.4503426 2.4388618,14.2045553 L2.4388618,3.35485464 C2.4388618,1.11005493 1.98555645,0.974754645 0.119992593,0.893771989 C-0.039997531,0.731806679 -0.039997531,0.162952904 0.119992593,0.000987593358 C1.45324363,0.0266650207 2.22554163,0.0553052281 3.55879267,0.0553052281 C4.70440096,0.0543176347 5.95765693,1.77635684e-15 6.88994507,1.77635684e-15 Z M4.70440096,7.60249367 L6.67761249,7.60249367 C8.88883402,7.60249367 10.4620702,6.78970434 10.4620702,4.49157459 C10.4620702,1.73125116 8.51552373,0.92043701 7.02425776,0.92043701 C4.70440096,0.92043701 4.70440096,1.19103759 4.70440096,2.08480958 L4.70440096,7.60249367 L4.70440096,7.60249367 Z M4.70440096,14.8514289 C4.70440096,15.7452009 5.05104623,16.6656379 6.91562249,16.6656379 C10.967718,16.6656379 11.7143386,15.016357 11.7143386,13.0401827 C11.7143386,10.6057651 10.1944324,8.52194309 6.5432998,8.52194309 L4.70440096,8.52194309 L4.70440096,14.8514289 Z M21.6495278,16.9095735 C21.7700142,17.0221591 21.7700142,17.42806 21.6495278,17.5426208 C20.6500833,17.5238566 20.0693784,17.5050923 19.0709215,17.5050923 C18.0507376,17.5050923 17.4502808,17.5248441 16.4705882,17.5426208 C16.3510894,17.4290476 16.3510894,17.0231467 16.4705882,16.9095735 C17.8709956,16.8503179 18.2107277,16.7555089 18.2107277,15.1605456 L18.2107277,7.45731745 C18.2107277,5.86136658 17.8709956,5.76557003 16.4705882,5.70828961 C16.3510894,5.59274119 16.3510894,5.18881551 16.4705882,5.07326708 C17.4720079,5.09400654 18.0517252,5.11277082 19.0501821,5.11277082 C20.0693784,5.11277082 20.6698352,5.09203136 21.6495278,5.07326708 C21.7700142,5.18782791 21.7700142,5.5917536 21.6495278,5.70828961 C20.250108,5.76655762 19.9103759,5.86037899 19.9103759,7.45731745 L19.9103759,15.1605456 C19.9103759,16.7555089 20.250108,16.8532807 21.6495278,16.9095735 Z M23.8696377,17.1396827 C23.8696377,17.0438862 23.9298809,16.9866058 24.0108635,16.9866058 L24.5510771,16.9490772 C25.391519,16.8878464 25.6305166,16.6794642 25.6305166,16.143201 L25.6305166,6.47960002 C25.6305166,5.9028455 25.3302883,5.73001667 24.5510771,5.67174866 L24.031603,5.6352077 C23.9516079,5.6352077 23.8716129,5.5759521 23.8716129,5.48114314 L23.8716129,5.11672119 L23.9121042,5.07919264 C24.9125363,5.09894451 25.5120054,5.11672119 26.5114499,5.11672119 C27.5108944,5.11672119 28.0915993,5.09696932 29.0712919,5.07919264 L29.1117832,5.11672119 L29.1117832,5.48114314 C29.1117832,5.57891488 29.05154,5.6352077 28.9517931,5.6352077 L28.4333066,5.67174866 C27.6323684,5.73297945 27.3341152,5.94136164 27.3341152,6.47960002 L27.3341152,10.4744152 C28.0540707,10.4744152 28.9527807,10.4546633 29.4327511,10.1870255 C30.6129251,9.57274242 30.8934016,8.3422011 31.0731436,7.26769952 C31.2726375,6.07764953 31.8345781,5.00018517 33.4127523,5.00018517 C34.47244,5.00018517 34.8329115,5.55718783 34.8329115,5.99864206 C34.8329115,6.55663231 34.3717055,6.76797729 33.9519783,6.76797729 C33.6922412,6.76797729 33.4127523,6.67218073 33.2122708,6.47960002 C32.9920375,6.26726745 32.8320474,6.1704833 32.5723104,6.1704833 C31.9738288,6.1704833 31.8355657,6.80649343 31.7318684,7.36152089 C31.5116351,8.55255848 31.0928955,10.2038146 29.5720017,10.7430406 L29.5720017,10.8398247 C30.9506821,10.8398247 31.7318684,11.6654527 32.2701068,13.0105549 C33.3120178,15.6029875 34.3302265,16.9105611 35.0304302,16.9668539 L35.3494229,16.9875934 C35.4491698,16.9875934 35.509413,17.0458614 35.509413,17.1396827 L35.509413,17.5050923 L35.4886735,17.5426208 L33.9075366,17.522869 C32.3481267,17.5031171 31.6281711,15.94667 30.7679773,13.8351954 C29.9858033,11.9143263 29.6085427,11.2802913 27.3281896,11.2802913 L27.3281896,16.1412259 C27.3281896,16.7160052 27.628418,16.8868588 28.4283686,16.947102 L28.9468551,16.9846306 C29.0278378,16.9846306 29.1068453,17.0438862 29.1068453,17.1377075 L29.1068453,17.5031171 L29.0663539,17.5406456 C28.1064132,17.5031171 27.5266959,17.5031171 26.5272514,17.5031171 C25.5278069,17.5031171 24.8878464,17.5031171 23.9081538,17.5406456 L23.8676625,17.5031171 L23.8696377,17.1396827 L23.8696377,17.1396827 Z M42.9292019,16.9095735 C43.0487007,17.0221591 43.0487007,17.42806 42.9292019,17.5426208 C41.9287698,17.5238566 41.3480649,17.5050923 40.3486205,17.5050923 C39.3304117,17.5050923 38.7299549,17.5248441 37.7502623,17.5426208 C37.6287883,17.4290476 37.6287883,17.0231467 37.7502623,16.9095735 C39.1486945,16.8503179 39.4884266,16.7555089 39.4884266,15.1605456 L39.4884266,7.45731745 C39.4884266,5.86136658 39.1486945,5.76557003 37.7502623,5.70828961 C37.6287883,5.59274119 37.6287883,5.18881551 37.7502623,5.07326708 C38.7497068,5.09400654 39.3304117,5.11277082 40.3288686,5.11277082 C41.3490525,5.11277082 41.9495093,5.09203136 42.9292019,5.07326708 C43.0487007,5.18782791 43.0487007,5.5917536 42.9292019,5.70828961 C41.5287945,5.76655762 41.1880748,5.86037899 41.1880748,7.45731745 L41.1880748,15.1605456 C41.1880748,16.7555089 41.5287945,16.8532807 42.9292019,16.9095735 Z M58.3860256,5.07721746 C58.5065119,5.19079069 58.5065119,5.59471638 58.3860256,5.7102648 C56.9866058,5.7695204 56.6448985,5.86334177 56.6448985,7.45929264 L56.6448985,15.1635084 C56.6448985,16.7574841 56.9856182,16.8542683 58.3860256,16.9125363 C58.5065119,17.0261095 58.5065119,17.4310228 58.3860256,17.5455836 C57.4063329,17.5258317 56.8048886,17.5080551 55.7866798,17.5080551 C54.7872354,17.5080551 54.2065305,17.5287945 53.207086,17.5455836 C53.0865996,17.4320104 53.0865996,17.0270971 53.207086,16.9125363 C54.6065058,16.8542683 54.9462379,16.7584717 54.9462379,15.1635084 L54.9462379,7.30621567 C54.9462379,6.11616567 54.5067588,5.88605642 54.0267885,5.88605642 L50.0872786,5.88605642 C49.6073082,5.88605642 49.1678291,6.11419048 49.1678291,7.30621567 L49.1678291,15.1635084 C49.1678291,16.7574841 49.5075613,16.8542683 50.9079686,16.9125363 C51.0274674,17.0261095 51.0274674,17.4310228 50.9079686,17.5455836 C49.9075366,17.5258317 49.3278193,17.5080551 48.3283748,17.5080551 C47.3091784,17.5080551 46.7087217,17.5287945 45.7300167,17.5455836 C45.6085427,17.4320104 45.6085427,17.0270971 45.7300167,16.9125363 C47.1284489,16.8542683 47.4701562,16.7584717 47.4701562,15.1635084 L47.4701562,7.45929264 C47.4701562,5.86531696 47.130424,5.76853281 45.7300167,5.7102648 C45.6085427,5.59570397 45.6085427,5.19177829 45.7300167,5.07721746 C46.7294611,5.09696932 47.849392,5.114746 48.3086229,5.114746 L55.8084069,5.114746 C56.3466453,5.114746 57.3865811,5.09499414 58.3860256,5.07721746 Z M60.9804333,15.1220295 C60.9804333,14.7388433 61.1611629,14.3734337 61.6598975,14.3734337 C62.2406024,14.3734337 62.5408308,14.8929078 62.7985927,15.6039751 C63.0790692,16.3723227 63.8800074,17.0241343 65.3999136,17.0241343 C68.3587433,17.0241343 69.7976668,14.7576076 69.9981483,11.7237208 C69.3384359,11.4333683 68.757731,11.3000432 67.9982717,11.3000432 C66.8388371,11.3000432 66.2581322,11.9143263 64.9199432,11.9143263 C63.7407567,11.9143263 62.4796,11.3573236 62.4796,10.8773532 C62.4796,10.7223011 62.5803345,10.647244 62.6603296,10.647244 C62.8193321,10.647244 63.1393124,10.9553731 63.9007469,10.9553731 C65.0799333,10.9553731 65.9401272,10.224554 67.2002963,10.224554 C67.4610209,10.224554 68.7804457,10.4546633 70.0001234,11.1094377 L70.0208629,11.0896858 C70.0208629,6.99808654 67.7217456,5.5769397 66.1415962,5.5769397 C63.3812728,5.5769397 62.24159,7.13141164 61.7211283,8.78365533 L61.1206716,8.70761064 C61.321153,7.70816616 61.4811431,6.76698969 61.5611382,5.72902907 C62.7008209,5.66977347 63.5007716,4.86587248 66.0398741,4.86587248 C69.3581878,4.86587248 71.7590272,7.24597247 71.7590272,11.2625147 C71.7590272,14.8158756 69.7798901,17.697673 65.4818838,17.697673 C63.5402753,17.6966854 60.9804333,16.5441639 60.9804333,15.1220295 Z M76.0599963,11.7217456 C76.4984877,9.5312635 76.7394605,7.55311401 76.7394605,6.34429973 C76.7394605,5.94037405 76.5577433,5.74088019 76.0392568,5.69150052 L75.4397877,5.63323252 C75.3400407,5.63323252 75.2797975,5.59372878 75.2797975,5.51768409 L75.2797975,5.114746 L75.3202889,5.07721746 C75.3202889,5.07721746 76.7206963,5.114746 77.3191778,5.114746 L82.5386087,5.114746 C83.1370903,5.114746 84.7182273,5.07721746 84.7182273,5.07721746 L84.7587186,5.114746 L84.7587186,5.47916795 C84.7587186,5.59372878 84.6787235,5.62730696 84.5987285,5.63323252 L84.0180236,5.66977347 C83.3751003,5.71322758 83.2783162,5.95815073 83.2783162,6.65045368 L83.2783162,16.0059256 C83.2783162,16.7169928 83.7286587,16.9283378 84.0792544,16.9856182 C84.5128079,17.0577125 84.66786,17.1219061 84.6787235,17.3510277 L84.8199494,20.194309 C84.2787482,20.194309 84.2787482,20.2140609 84.2787482,20.2140609 C84.038763,19.1385717 83.3188075,17.5060799 81.7189062,17.5060799 L75.919758,17.5060799 C74.258626,17.5060799 73.7401395,19.215604 73.5199062,20.2140609 L72.9796926,20.194309 L73.1199309,17.3510277 C73.1327696,17.1219061 73.343127,17.0142584 73.5406456,16.9856182 C73.9317326,16.9273502 74.2517129,16.8809333 74.5410777,16.6014444 C75.0605518,16.1007345 75.4190482,14.7181038 76.0599963,11.7217456 Z M78.3788655,5.88210604 C77.8386519,5.88210604 77.6391581,6.15171903 77.5996543,6.6316894 C77.437689,8.57231035 77.119684,10.5692241 76.8796988,11.8758101 C76.4402197,14.122585 75.9404975,16.0246898 75.9404975,16.4276279 C75.9404975,16.6567496 76.2002346,16.7545213 76.4807111,16.7545213 L80.8597,16.7545213 C81.3396704,16.7545213 81.5796556,16.6952657 81.5796556,15.9861737 L81.5796556,6.62971422 C81.5796556,6.03419542 81.4601568,5.88210604 80.8409357,5.88210604 L78.3788655,5.88210604 L78.3788655,5.88210604 Z M88.9046355,7.45830504 C88.9046355,5.86334177 88.5649034,5.76754521 87.164496,5.70927721 C87.0449972,5.59471638 87.0449972,5.19079069 87.164496,5.07622986 C88.1639405,5.09598173 88.7446454,5.11375841 89.7431023,5.11375841 C90.7632862,5.11375841 91.363743,5.09400654 92.3434356,5.07622986 C92.4629344,5.1898031 92.4629344,5.59372878 92.3434356,5.70927721 C90.9440158,5.76853281 90.6032961,5.86235418 90.6032961,7.45830504 L90.6032961,10.3401025 L92.3621999,10.3401025 C96.7421764,10.3401025 97.2616505,12.2807234 97.2616505,13.9902475 C97.2616505,16.5471267 95.531387,17.5436084 91.7024875,17.5436084 C90.9825319,17.5436084 90.3425714,17.5060799 89.7618666,17.5060799 C88.7436578,17.5060799 88.1422134,17.5268193 87.1635084,17.5436084 C87.0420344,17.4300352 87.0420344,17.0251219 87.1635084,16.9105611 C88.5619406,16.8522931 88.9036479,16.7564965 88.9036479,15.1615332 L88.9036479,7.45830504 L88.9046355,7.45830504 Z M95.4029998,13.9892599 C95.4029998,12.8367385 94.66428,11.1074625 92.104438,11.1074625 L90.6032961,11.1074625 L90.6032961,15.6217517 C90.6032961,16.2557867 90.7850133,16.9095735 91.7429788,16.9095735 C94.785754,16.9095735 95.4029998,15.1802975 95.4029998,13.9892599 Z M102.743781,16.9095735 C102.86328,17.0221591 102.86328,17.42806 102.743781,17.5426208 C101.742362,17.5238566 101.163632,17.5050923 100.164187,17.5050923 C99.144991,17.5050923 98.5435467,17.5248441 97.5638541,17.5426208 C97.4443553,17.4290476 97.4443553,17.0231467 97.5638541,16.9095735 C98.9642615,16.8503179 99.3049812,16.7555089 99.3049812,15.1605456 L99.3049812,7.45731745 C99.3049812,5.86136658 98.9642615,5.76557003 97.5638541,5.70828961 C97.4443553,5.59274119 97.4443553,5.18881551 97.5638541,5.07326708 C98.5642862,5.09400654 99.144991,5.11277082 100.143448,5.11277082 C101.163632,5.11277082 101.764089,5.09203136 102.743781,5.07326708 C102.86328,5.18782791 102.86328,5.5917536 102.743781,5.70828961 C101.343374,5.76655762 101.003642,5.86037899 101.003642,7.45731745 L101.003642,15.1605456 C101.004629,16.7555089 101.343374,16.8532807 102.743781,16.9095735 Z M105.151534,16.9895685 C105.151534,16.8542683 105.230541,16.7742732 105.337201,16.7742732 L105.576199,16.7466206 C106.42948,16.6399605 107.75088,15.1664712 109.122647,11.5508919 C109.789272,9.79297574 110.588235,9.1154867 111.308191,8.6839084 L111.308191,8.60292575 C109.495957,8.33331276 107.337078,6.97932226 107.337078,4.21998642 C107.337078,2.35343497 108.243689,0.0266650207 113.201407,0.0266650207 C114.133695,0.0266650207 115.706932,0.0533300414 116.587865,0.0533300414 C117.413493,0.0533300414 120,0.0266650207 120,0.0266650207 L120,0.594531202 C120,0.702178878 119.945682,0.78217394 119.813345,0.78217394 L119.012407,0.837479168 C117.892476,0.918461823 117.599161,1.10906734 117.599161,2.02752916 L117.599161,15.5279304 C117.599161,16.3397321 117.947781,16.6379853 119.039072,16.718968 L119.759027,16.7752608 C119.865687,16.7752608 119.973335,16.8552558 119.973335,16.9905561 L119.973335,17.5050923 L119.919017,17.5603975 C119.919017,17.5603975 117.599161,17.5050923 116.5612,17.5050923 C115.600272,17.5050923 113.123387,17.5603975 113.123387,17.5603975 L113.06907,17.5050923 L113.06907,16.9905561 C113.06907,16.8552558 113.149065,16.7752608 113.283378,16.7752608 L113.975681,16.718968 C115.095611,16.6330473 115.440281,16.2864021 115.440281,15.5279304 L115.440281,8.73723844 C112.616752,8.73723844 112.083452,9.52237516 110.963521,12.3913339 C109.816925,15.3274489 108.831307,17.5021295 106.93809,17.5317573 L105.179186,17.5574347 L105.152521,17.5031171 L105.152521,16.9895685 L105.151534,16.9895685 Z M113.36041,7.71014135 L115.439294,7.71014135 L115.439294,1.94950929 C115.439294,1.05474971 115.333621,0.974754645 113.012777,0.974754645 C111.519536,0.974754645 109.493982,1.40732054 109.493982,3.92272082 C109.495957,6.78970434 111.148201,7.71014135 113.36041,7.71014135 Z" id="be-tarask-wordmark" fill="#000000" fill-rule="nonzero"></path>
    </g>
</svg>

<svg xmlns="http://www.w3.org/2000/svg" width="120" height="21"><path fill="#000" fill-rule="nonzero" d="M6.89 0c4.959 0 5.732 2.353 5.732 4.165 0 1.47-1.197 2.859-2.531 3.545v.054c2.319.678 4.104 2.164 4.104 4.763 0 2.324-1.414 5.033-6.717 5.033-2.373 0-2.746-.055-3.893-.055-1.358 0-2.16.027-3.465.055-.16-.163-.16-.731 0-.893 1.866-.081 2.319-.217 2.319-2.462V3.355C2.439 1.11 1.986.975.12.894-.04.732-.04.163.12 0c1.333.026 2.106.054 3.439.054C4.704.055 5.958 0 6.889 0ZM4.704 7.602h1.974c2.21 0 3.784-.812 3.784-3.11 0-2.76-1.946-3.572-3.438-3.572-2.32 0-2.32.271-2.32 1.165v5.517Zm0 7.25c0 .893.347 1.814 2.212 1.814 4.052 0 4.798-1.65 4.798-3.626 0-2.434-1.52-4.518-5.17-4.518h-1.84v6.33ZM21.65 16.91c.12.112.12.518 0 .633-1-.02-1.58-.038-2.58-.038-1.02 0-1.62.02-2.6.038-.119-.114-.119-.52 0-.633 1.401-.06 1.74-.154 1.74-1.75V7.458c0-1.596-.339-1.691-1.74-1.749-.119-.115-.119-.52 0-.635 1.002.021 1.582.04 2.58.04 1.02 0 1.62-.021 2.6-.04.12.115.12.519 0 .635-1.4.059-1.74.152-1.74 1.75v7.703c0 1.595.34 1.692 1.74 1.749Zm2.22.23c0-.096.06-.153.14-.153l.541-.038c.84-.061 1.08-.27 1.08-.806V6.48c0-.577-.3-.75-1.08-.808l-.52-.037c-.08 0-.16-.059-.16-.154v-.364l.041-.038c1 .02 1.6.038 2.6.038.999 0 1.58-.02 2.56-.038l.04.038v.364c0 .098-.06.154-.16.154l-.519.037c-.8.061-1.099.27-1.099.808v3.994c.72 0 1.619-.02 2.099-.287 1.18-.614 1.46-1.845 1.64-2.92.2-1.19.762-2.267 2.34-2.267 1.06 0 1.42.557 1.42.999 0 .558-.461.769-.881.769-.26 0-.54-.096-.74-.288-.22-.213-.38-.31-.64-.31-.598 0-.736.636-.84 1.192-.22 1.19-.64 2.842-2.16 3.381v.097c1.379 0 2.16.825 2.698 2.17 1.042 2.593 2.06 3.9 2.76 3.957l.32.02c.1 0 .16.059.16.153v.365l-.021.038-1.581-.02c-1.56-.02-2.28-1.576-3.14-3.688-.782-1.92-1.16-2.555-3.44-2.555v4.861c0 .575.3.746 1.1.806l.519.038c.08 0 .16.059.16.153v.365l-.04.038c-.96-.038-1.54-.038-2.54-.038s-1.64 0-2.619.038l-.04-.038.002-.363Zm19.06-.23c.119.112.119.518 0 .633-1.001-.02-1.582-.038-2.581-.038-1.019 0-1.619.02-2.599.038-.121-.114-.121-.52 0-.633 1.399-.06 1.738-.154 1.738-1.75V7.458c0-1.596-.34-1.691-1.738-1.749-.121-.115-.121-.52 0-.635 1 .021 1.58.04 2.579.04 1.02 0 1.62-.021 2.6-.04.12.115.12.519 0 .635-1.4.059-1.74.152-1.74 1.75v7.703c0 1.595.34 1.692 1.74 1.749ZM58.385 5.077c.12.114.12.518 0 .633-1.4.06-1.741.153-1.741 1.75v7.704c0 1.593.34 1.69 1.741 1.749.12.113.12.518 0 .633-.98-.02-1.581-.038-2.6-.038-.999 0-1.58.02-2.579.038-.12-.114-.12-.519 0-.633 1.4-.059 1.74-.155 1.74-1.75V7.307c0-1.19-.44-1.42-.92-1.42h-3.94c-.48 0-.92.228-.92 1.42v7.858c0 1.593.34 1.69 1.741 1.749.12.113.12.518 0 .633-1-.02-1.58-.038-2.58-.038-1.019 0-1.62.02-2.598.038-.121-.114-.121-.519 0-.633 1.398-.059 1.74-.155 1.74-1.75V7.46c0-1.594-.34-1.69-1.74-1.749-.121-.114-.121-.518 0-.633 1 .02 2.12.038 2.579.038h7.5c.538 0 1.578-.02 2.577-.038Zm2.594 10.045c0-.383.181-.749.68-.749.58 0 .88.52 1.139 1.231.28.768 1.081 1.42 2.6 1.42 2.96 0 4.399-2.266 4.6-5.3a4.628 4.628 0 0 0-2-.424c-1.16 0-1.74.614-3.08.614-1.178 0-2.44-.557-2.44-1.037 0-.155.101-.23.181-.23.16 0 .48.308 1.24.308 1.18 0 2.04-.73 3.3-.73.261 0 1.58.23 2.8.884l.02-.02c0-4.09-2.298-5.512-3.878-5.512-2.76 0-3.9 1.554-4.42 3.207l-.601-.076c.2-1 .36-1.941.44-2.979 1.14-.06 1.94-.863 4.479-.863 3.318 0 5.719 2.38 5.719 6.397 0 3.553-1.98 6.435-6.277 6.435-1.942-.001-4.502-1.154-4.502-2.576Zm15.08-3.4c.438-2.19.68-4.169.68-5.378 0-.404-.182-.603-.7-.652l-.6-.059c-.1 0-.16-.04-.16-.115v-.403l.04-.038s1.4.038 2 .038h5.219c.598 0 2.18-.038 2.18-.038l.04.038v.364c0 .115-.08.148-.16.154l-.581.037c-.643.043-.74.288-.74.98v9.356c0 .711.45.922.801.98.434.072.589.136.6.365l.14 2.843c-.54 0-.54.02-.54.02-.24-1.075-.96-2.708-2.56-2.708h-5.8c-1.66 0-2.179 1.71-2.4 2.708l-.54-.02.14-2.843c.014-.23.224-.337.422-.365.39-.059.71-.105 1-.385.52-.5.878-1.883 1.519-4.88Zm2.319-5.84c-.54 0-.74.27-.78.75-.161 1.94-.48 3.937-.72 5.244-.439 2.247-.939 4.149-.939 4.552 0 .229.26.327.54.327h4.38c.48 0 .72-.06.72-.769V6.63c0-.596-.12-.748-.74-.748H78.38Zm10.526 1.576c0-1.595-.34-1.69-1.74-1.749-.12-.114-.12-.518 0-.633.999.02 1.58.038 2.578.038 1.02 0 1.62-.02 2.6-.038.12.114.12.518 0 .633-1.399.06-1.74.153-1.74 1.75v2.881h1.76c4.38 0 4.899 1.94 4.899 3.65 0 2.557-1.73 3.554-5.56 3.554-.72 0-1.36-.038-1.94-.038-1.018 0-1.62.02-2.598.038-.122-.114-.122-.519 0-.633 1.398-.059 1.74-.155 1.74-1.75V7.459Zm6.498 6.531c0-1.152-.739-2.882-3.299-2.882h-1.5v4.515c0 .634.181 1.288 1.139 1.288 3.043 0 3.66-1.73 3.66-2.92Zm7.34 2.92c.12.113.12.52 0 .634-1-.02-1.58-.038-2.579-.038-1.019 0-1.62.02-2.6.038-.12-.114-.12-.52 0-.633 1.4-.06 1.741-.154 1.741-1.75V7.458c0-1.596-.34-1.691-1.741-1.749-.12-.115-.12-.52 0-.635 1 .021 1.581.04 2.58.04 1.02 0 1.62-.021 2.6-.04.12.115.12.519 0 .635-1.4.059-1.74.152-1.74 1.75v7.703c0 1.595.34 1.692 1.74 1.749Zm2.409.08c0-.135.079-.215.185-.215l.24-.027c.852-.107 2.174-1.58 3.546-5.196.666-1.758 1.465-2.436 2.185-2.867v-.081c-1.812-.27-3.97-1.624-3.97-4.383 0-1.867.906-4.193 5.863-4.193.933 0 2.506.026 3.387.026.825 0 3.412-.026 3.412-.026v.568c0 .107-.054.187-.187.187l-.8.055c-1.12.081-1.414.272-1.414 1.19v13.5c0 .813.349 1.111 1.44 1.192l.72.056c.107 0 .214.08.214.216v.514l-.054.055s-2.32-.055-3.358-.055c-.96 0-3.438.055-3.438.055l-.054-.055v-.514c0-.136.08-.216.214-.216l.693-.056c1.12-.086 1.464-.433 1.464-1.191v-6.79c-2.823 0-3.357.784-4.476 3.653-1.147 2.936-2.133 5.111-4.026 5.14l-1.759.026-.026-.054v-.513h-.001Zm8.208-9.279h2.08V1.95c0-.895-.106-.975-2.427-.975-1.493 0-3.519.432-3.519 2.948.002 2.867 1.654 3.787 3.866 3.787Z"/></svg>
